X: 39311
T: Tales Of Peedy And Paddy, The
R: jig
M: 6/8
K: Eminor
|:"Em"BAB G2G|"Em"A2A d2"Bm"G|"Em"BAB G2G|"G"FED D2E|
"Em"BAB G2G|"Em"A2A d2"Bm"c|"Em"Bcd cdf|"G"G3 ez2:|
gdG g2d|gdG g2d|edc B2c|fed def|
gdG g2d|gdG g2d|fga bag|fed dcg|
gdG g2d|gdG g2d|edc B2c|fed def|
gdG g2d|gdG g2d|fga bag|fed dcg||
gdG g2d|gdG g2d|edc B2c|fed def|
gdG g2d|gdG g2d|fga bag|fed dcg|
g2d gdG|g2d gdG|GEG Bed|fed def|
g2d gdG|g2d gdG|dBg aBg|deB Bcd|g6||

